X:10003
T:Jimmy Allen
T:Jamie Allen
R:Reel
C:Trad.
O:England, Northumberland
Z:Paul Hardy's Annex Tunebook 2015 (see www.paulhardy.net). Creative Commons cc by-nc-sa licenced.
M:4/4
L:1/8
Q:1/4=200
K:G
GA|"G"B2G2 G2A2|B4 G2AB|"Am"c2A2 A2B2|c3c "D7"B2A2|"G"G2g2"C"g2e2|"G"d4 B3c|"Am"d2d2"D7"cB A2|"G"G6|
GA|"G"B2G2 G2A2|BcBA G2AB|"Am"c2A2 A2B2|cdcB "D7"A2 BA|"G"G2g2"C"g2e2|"G"d4 B3c|"Am"d2d2"D7"cB A2|"G"G6||
|:BA|"G"G2g2 g3f|"Em"e2d2"C"c2B2|"A7"A2a2 a3g|"D"f2d2 e2f2|"G"g3a "C"g2e2|"G"d4 B3c|"Am"d2d2"D7"cB A2|"G"G6:|

